icons/accessibility-16.svg

<svg width="16" height="16" viewBox="0 0 16 16" fill="none" xmlns="http://www.w3.org/2000/svg">
<g clip-path="url(#clip0_7071_52819)">
<path fill-rule="evenodd" clip-rule="evenodd" d="M9.92346 5.30234C10.5815 4.75202 11 3.92489 11 3C11 1.34315 9.65685 0 8 0C6.34315 0 5 1.34315 5 3C5 3.92486 5.41851 4.75198 6.07649 5.30229C6.0119 5.36749 5.95056 5.43601 5.89278 5.50758L1.90693 6.00581C1.49592 6.05719 1.20437 6.43203 1.25575 6.84304C1.30713 7.25406 1.68197 7.5456 2.09298 7.49423L5.28881 7.09475L4.72153 12.1634L4.36032 15.1603C4.31076 15.5715 4.60395 15.945 5.01519 15.9946C5.42642 16.0442 5.79998 15.751 5.84954 15.3397L6.13155 13H9.86836L10.1504 15.3397C10.1999 15.751 10.5735 16.0442 10.9847 15.9946C11.396 15.945 11.6891 15.5715 11.6396 15.1603L11.2784 12.1634L10.7111 7.09475L13.9069 7.49423C14.3179 7.5456 14.6928 7.25406 14.7442 6.84304C14.7955 6.43203 14.504 6.05719 14.093 6.00581L10.1071 5.50758C10.0494 5.43602 9.98804 5.36753 9.92346 5.30234ZM9.5 3C9.5 3.82843 8.82843 4.5 8 4.5C7.17157 4.5 6.5 3.82843 6.5 3C6.5 2.17157 7.17157 1.5 8 1.5C8.82843 1.5 9.5 2.17157 9.5 3ZM9.19925 7.07256L9.69477 11.5H6.30514L6.80066 7.07256C6.86901 6.46183 7.3854 6 7.99995 6C8.6145 6 9.1309 6.46183 9.19925 7.07256Z" fill="black"/>
</g>
<defs>
<clipPath id="clip0_7071_52819">
<rect width="16" height="16" fill="white"/>
</clipPath>
</defs>
</svg>

<svg xmlns="http://www.w3.org/2000/svg" width="16" height="16" viewBox="0 0 16 16"><path fill-rule="evenodd" d="M9.923 5.302a3 3 0 10-3.847 0 2.715 2.715 0 00-.183.206l-3.986.498a.75.75 0 00.186 1.488l3.196-.4-.567 5.07-.362 2.996a.75.75 0 001.49.18L6.132 13h3.736l.282 2.34a.75.75 0 101.49-.18l-.362-2.997-.567-5.068 3.196.4a.75.75 0 00.186-1.49l-3.986-.497a2.699 2.699 0 00-.184-.206zM9.5 3a1.5 1.5 0 11-3 0 1.5 1.5 0 013 0zm-.3 4.073l.495 4.427h-3.39l.496-4.427a1.207 1.207 0 012.398 0z"/></svg>
